logo.svg

<svg xmlns="http://www.w3.org/2000/svg" viewBox="0 0 207.9 207.9" enable-background="new 0 0 207.9 207.9"><linearGradient id="a" gradientUnits="userSpaceOnUse" x1="199.363" y1="199.363" x2="8.491" y2="8.491"><stop offset="0" stop-color="#D60A57"/><stop offset=".5" stop-color="#F43540"/><stop offset="1" stop-color="#FF6B48"/></linearGradient><path fill="url(#a)" d="M178.9 0h-149.9c-16 0-29 13-29 29v149.9c0 16 13 29 29 29h149.9c16 0 29-13 29-29v-149.9c0-16-13-29-29-29zm-37 159c0 2.9-2.4 5.3-5.3 5.3h-64.3c-2.9 0-5.3-2.4-5.3-5.3v-114.1c0-2.9 2.4-5.3 5.3-5.3h15.8c2.9 0 5.3 2.4 5.3 5.3v31c0 2.9 2.4 5.3 5.3 5.3h37.9c2.9 0 5.3 2.4 5.3 5.3v72.5z"/><linearGradient id="b" gradientUnits="userSpaceOnUse" x1="117.615" y1="135.897" x2="91.319" y2="109.602"><stop offset="0" stop-color="#EF2B43"/><stop offset="1" stop-color="#F53640"/></linearGradient><path fill="url(#b)" d="M93.4 107.5h22.1v30.5h-22.1z"/></svg>

<?xml version="1.0" encoding="utf-8"?>
<!-- Generator: Adobe Illustrator 17.1.0, SVG Export Plug-In . SVG Version: 6.00 Build 0)  -->
<!DOCTYPE svg PUBLIC "-//W3C//DTD SVG 1.1//EN" "http://www.w3.org/Graphics/SVG/1.1/DTD/svg11.dtd">
<svg version="1.1" id="レイヤー_1" xmlns="http://www.w3.org/2000/svg" xmlns:xlink="http://www.w3.org/1999/xlink" x="0px"
	 y="0px" viewBox="0 0 207.9 207.9" enable-background="new 0 0 207.9 207.9" xml:space="preserve">
<g>
	<g>
		<linearGradient id="SVGID_1_" gradientUnits="userSpaceOnUse" x1="199.363" y1="199.3629" x2="8.4906" y2="8.4905">
			<stop  offset="0" style="stop-color:#D60A57"/>
			<stop  offset="0.5" style="stop-color:#F43540"/>
			<stop  offset="1" style="stop-color:#FF6B48"/>
		</linearGradient>
		<path fill="url(#SVGID_1_)" d="M178.9,0H29C13,0,0,13,0,29v149.9c0,16,13,29,29,29h149.9c16,0,29-13,29-29V29
			C207.9,13,194.9,0,178.9,0z M141.9,159c0,2.9-2.4,5.3-5.3,5.3H72.3c-2.9,0-5.3-2.4-5.3-5.3V44.9c0-2.9,2.4-5.3,5.3-5.3h15.8
			c2.9,0,5.3,2.4,5.3,5.3l0,31c0,2.9,2.4,5.3,5.3,5.3l37.9,0c2.9,0,5.3,2.4,5.3,5.3V159z"/>
	</g>
	<g>
		<linearGradient id="SVGID_2_" gradientUnits="userSpaceOnUse" x1="117.615" y1="135.8974" x2="91.3192" y2="109.6016">
			<stop  offset="0" style="stop-color:#EF2B43"/>
			<stop  offset="1" style="stop-color:#F53640"/>
		</linearGradient>
		<rect x="93.4" y="107.5" fill="url(#SVGID_2_)" width="22.1" height="30.5"/>
	</g>
</g>
</svg>
